build/img/icons/error.svg

<svg width="20" height="20" viewBox="0 0 20 20" fill="none" xmlns="http://www.w3.org/2000/svg">
<circle cx="10" cy="10.0005" r="9" stroke="#FF2E2E" stroke-width="2"/>
<path d="M7.132 14.0005L9.304 9.98049L7.264 6.17649H9.232L9.916 7.65249C10.004 7.83649 10.092 8.03249 10.18 8.24049C10.268 8.44049 10.368 8.66449 10.48 8.91249H10.528C10.616 8.66449 10.7 8.44049 10.78 8.24049C10.868 8.03249 10.952 7.83649 11.032 7.65249L11.656 6.17649H13.54L11.512 10.0645L13.672 14.0005H11.704L10.924 12.4045C10.828 12.1965 10.732 11.9925 10.636 11.7925C10.548 11.5845 10.448 11.3605 10.336 11.1205H10.288C10.2 11.3605 10.112 11.5845 10.024 11.7925C9.936 11.9925 9.848 12.1965 9.76 12.4045L9.028 14.0005H7.132Z" fill="#FF2E2E"/>
</svg>

<svg width="20" height="20" fill="none" xmlns="http://www.w3.org/2000/svg"><circle cx="10" cy="10.001" r="9" stroke="#FF2E2E" stroke-width="2"/><path d="M7.132 14l2.172-4.02-2.04-3.804h1.968l.684 1.476c.088.184.176.38.264.588.088.2.188.424.3.672h.048c.088-.248.172-.472.252-.672.088-.208.172-.404.252-.588l.624-1.476h1.884l-2.028 3.889L13.672 14h-1.968l-.78-1.596a44.766 44.766 0 00-.288-.612 20.321 20.321 0 00-.3-.672h-.048c-.088.24-.176.463-.264.671-.088.2-.176.405-.264.613L9.028 14H7.132z" fill="#FF2E2E"/></svg>
